icons/svg/calendar-plus.svg

﻿<?xml version="1.0" encoding="utf-8"?>
<!DOCTYPE svg PUBLIC "-//W3C//DTD SVG 1.1//EN" "http://www.w3.org/Graphics/SVG/1.1/DTD/svg11.dtd">
<svg xmlns="http://www.w3.org/2000/svg" xmlns:xlink="http://www.w3.org/1999/xlink" version="1.1" baseProfile="full" width="24" height="24" viewBox="0 0 24.00 24.00" enable-background="new 0 0 24.00 24.00" xml:space="preserve">
	<path fill="#000000" fill-opacity="1" stroke-width="0.2" stroke-linejoin="round" d="M 18.9994,18.9981L 18.9993,6.9981L 4.99928,6.9981L 4.9994,18.9981L 18.9994,18.9981 Z M 15.9994,0.998083L 17.9994,0.998083L 17.9994,2.99808L 18.9994,2.99808C 20.1024,2.99808 20.9994,3.89307 20.9994,4.99808L 20.9994,18.9981C 20.9994,20.1021 20.1024,20.9981 18.9994,20.9981L 4.99936,20.9981C 3.89336,20.9981 2.99936,20.1021 2.99936,18.9981L 3.00937,4.99808C 3.00937,3.89307 3.89336,2.99808 4.99936,2.99808L 5.99936,2.99808L 5.99936,0.998083L 7.99936,0.998083L 7.99936,2.99808L 15.9994,2.99808L 15.9994,0.998083 Z M 11,9L 13,9L 13,12L 16,12L 16,14L 13,14L 13,17L 11,17L 11,14L 8,14L 8,12L 11,12L 11,9 Z "/>
</svg>

<svg xmlns="http://www.w3.org/2000/svg" version="1.1" baseProfile="full" width="24" height="24" viewBox="0 0 24.00 24.00" xml:space="preserve"><path fill="#000" fill-opacity="1" stroke-width=".2" stroke-linejoin="round" d="M19 18.998v-12H5v12h14zm-3-18h2v2h1c1.102 0 2 .895 2 2v14c0 1.104-.898 2-2 2H5c-1.107 0-2-.896-2-2l.01-14c0-1.105.883-2 1.99-2h1v-2h2v2h8v-2zM11 9h2v3h3v2h-3v3h-2v-3H8v-2h3V9z"/></svg>
